X:1
T:169 - Mais de Cristo
T:Letra: Eliza Edmunds Hewitt (1851-1920)
T:Trad.: Henry Maxwell Wright (1849-1931)
T: John Robson Sweney (1837-1899)
M:6/8
L:1/8
K:Abmaj
V:1
"Ab"E2E E2F| A2A2<A2| "Eb7"B2B B2d| "Ab"c2c2<c2| e2e e2d| c2c2<c2| "Bbm"B3/2c/2d "Ab/Eb"c2B| "Eb7"A2G2<"Ab"A2 || 
w: 1.~Mais de Cris-toeu que-ro ver, Mais do seu a-mor ob-ter, Mais da su-a com-pai-xão, Mais_ da su-a man-si-dão.
w: 2.~Mais de Cris-to com-preen-der, Que-roa Cris-too-be-de-cer, Sem-pre per-to dE-lean-dar, Seu_ a-mor ma-nis-fes-tar.
"Ab"c3 E3/2F/2E| A3 A3| "Eb7"B3 B3/2c/2d| "Ab"c3 c3| e3/2e/2e e2d| c2c2<c2| "Bbm"B3/2c/2d "Ab/Eb"c2B| "Eb7"A2G2<"Ab"A2|]
w: Mais, mais_ de Cris-to! Mais, mais_ de Cris-to! Mais do seu pu-roe san-toa-mor, Mais de Ti mes-moó Sal-va-dor!
W: 
W: 1. Mais de Cristo eu quero ver,
W: Mais do seu amor obter,
W: Mais da sua compaixão,
W: Mais da sua mansidão.
W: 
W: 
W: 2. Mais de Cristo compreender,
W: Quero a Cristo obedecer,
W: Sempre perto dEle andar,
W: Seu amor manisfestar.
W: 
W:    (Estribilho) 
W:    Mais, mais de Cristo!
W:    Mais, mais de Cristo!
W:    Mais do seu puro e santo amor,
W:    Mais de Ti mesmo, ó Salvador!





